lib/svgs/circle-chevron-right-o.svg

<svg xmlns="http://www.w3.org/2000/svg" viewBox="0 0 20 20">
    <path fill="#000" fill-rule="evenodd" d="M2,10 C2,14.418 5.582,18 10,18 C14.418,18 18,14.418 18,10 C18,5.582 14.418,2 10,2 C5.582,2 2,5.582 2,10 L2,10 L2,10 Z M3.2,10 C3.2,6.25 6.25,3.2 10,3.2 C13.75,3.2 16.8,6.25 16.8,10 C16.8,13.75 13.75,16.8 10,16.8 C6.25,16.8 3.2,13.75 3.2,10 L3.2,10 L3.2,10 Z M12.6011,9.9999 C12.6011,10.1589 12.5381,10.3119 12.4251,10.4239 L10.0241,12.8259 C9.7891,13.0599 9.4101,13.0599 9.1751,12.8259 C8.9411,12.5909 8.9411,12.2109 9.1751,11.9769 L11.1521,9.9999 L9.1751,8.0229 C8.9421,7.7889 8.9411,7.4089 9.1751,7.1749 C9.4101,6.9399 9.7891,6.9399 10.0241,7.1749 L12.4251,9.5759 C12.5381,9.6879 12.6011,9.8409 12.6011,9.9999 L12.6011,9.9999 L12.6011,9.9999 Z"/>
</svg>

<svg xmlns="http://www.w3.org/2000/svg" viewBox="0 0 20 20">
    <path fill="#000" fill-rule="evenodd" d="M2 10a8 8 0 1 0 16 0 8 8 0 0 0-16 0m1.2 0c0-3.75 3.05-6.8 6.8-6.8s6.8 3.05 6.8 6.8-3.05 6.8-6.8 6.8-6.8-3.05-6.8-6.8m9.401 0a.597.597 0 0 1-.176.424l-2.4 2.402a.601.601 0 0 1-.85-.85L11.152 10 9.175 8.023a.6.6 0 0 1 .85-.848l2.4 2.4a.597.597 0 0 1 .176.425"/>
</svg>
